X:6
T:Keizershof polka
O:belgium
M:2/4
L:1/8
Q:1/4=130
K:C
V:1
G|]"C" e3/2 d/cE |G2 zG |e3/2 d/cE |
"G7" F2 zF |d/d/d/d/ dc |B/B/B/B/ BA |G^G AF |
"C" E2 zG |"C" e3/2 d/cE |G2 zG |"C" e3/2 d/cB |
"F" A2 zA |f3/2 e/df |"C" ag e3/2 e/|"G" g3/2 f/dB |
"C" c2 zd/e/  |]
K:G
"G" dB GB |d2 zd/e/ |dB Gg |d2 zd/e/ |
"D" df ed |fe df/e/ |"D" dc BA |"G" BA Gd/e/ |
dB GB |d2 zd |d^c/d/ gf |"C" e2 ze |
"C" ea a3/2 e/|"G" dg g2 |"D" f3/2 e/d/c/B/ A/|"G" Gg gG
|]
K:F
"C" cB EG |"F" F2 z^F |"C" G^F/G/ A/B/c/d/ |"F" c2 zc/d/ |
"C" ce dc |ed ce/d/ |cB AG |"F" AG Fc/d/ |
"C" cB EG |"F" F2 z^F |"C7" G^F/G/ "F7" A/B/c/^c/ |"Bb" d2 zd/c/ |
dg gd |"F" cf f2 |"C7" e3/2 d/c/B/A/ G/|"F" FF Fz |]
